!!!COM: Palestrina, Giovanni Perluigi da
!!!OPR: Missa Ad fugam
!!!OTL: Agnus I
**kern	**kern	**kern	**kern
*Ibass	*Itenor	*Icalto	*Icant
!Bassus	!Tenor	!Altus	!Cantus
*clefF4	*clefGv2	*clefG2	*clefG2
*k[]	*k[]	*k[]	*k[]
*G:mix	*G:mix	*G:mix	*G:mix
*M4/2	*M4/2	*M4/2	*M4/2
=1	=1	=1	=1
0r	0r	1d	1r
.	.	1e	1g
=2	=2	=2	=2
0r	0r	1d	1a
.	.	2r	1g
.	.	[2g	.
=3	=3	=3	=3
0r	0r	2g]	2r
.	.	2f	1cc
.	.	2e	.
.	.	2d	2b
=4	=4	=4	=4
1r	0r	2f	2a
.	.	2.e	2g
1D	.	.	2b
.	.	4d	.
.	.	[2d	[2a
=5	=5	=5	=5
1E	1G	2d]	4a]
.	.	.	4g
.	.	2c#	1g
1D	1A	1d	.
.	.	.	2f#
=6	=6	=6	=6
2r	1G	0r	1g
1G	.	.	.
.	2r	.	1r
2F	[2c	.	.
=7	=7	=7	=7
2E	2c]	0r	0r
4D	2B	.	.
4E	.	.	.
4F	2A	.	.
4D	.	.	.
[2G	4G	.	.
.	4A	.	.
=8	=8	=8	=8
4G]	4B	1r	0r
4E	4G	.	.
2F	2.c	.	.
1G	.	1d	.
.	4A	.	.
.	2B	.	.
=9	=9	=9	=9
1r	1c	1e	1g
1D	1r	1d	1a
=10	=10	=10	=10
1E	1G	2r	1g
.	.	1g	.
2D	1A	.	2r
2r	.	2f	[2cc
=11	=11	=11	=11
1G	2G	2e	2cc]
.	2r	4d	2b
.	.	4e	.
2F	1c	4f	2a
.	.	4d	.
4E	.	[2g	4g
4F	.	.	4a
=12	=12	=12	=12
4G	2B	2g]	4b
4E	.	.	4g
1A	4A	2e	1cc
.	4B	.	.
.	4c	2f	.
.	4A	.	.
2F	[2d	[2a	2a
=13	=13	=13	=13
1G	2d]	4a]	2b
.	.	4g	.
.	2B	1g	2.dd
1A	1c	.	.
.	.	.	4cc
.	.	2f#	[2cc
=14	=14	=14	=14
2G	1d	1g	2cc]
2G	.	.	2b
2A	2c	1r	1cc
2c	2c	.	.
=15	=15	=15	=15
2B	2d	1r	0r
2A	2f	.	.
2c	2e	1g	.
2B	2d	.	.
=16	=16	=16	=16
1A	2f	2a	1cc
.	2e	2cc	.
1r	1d	2b	2dd
.	.	2a	2ff
=17	=17	=17	=17
1r	0r	2cc	2ee
.	.	2b	2dd
1A	.	1a	2ff
.	.	.	2ee
=18	=18	=18	=18
1B	1d	1d	1dd
1c	1e	1r	1g
=19	=19	=19	=19
2A	1f	0r	0r
2.d	.	.	.
.	2d	.	.
4c	.	.	.
4B	[2g	.	.
4A	.	.	.
=20	=20	=20	=20
2B	4g]	1g	1r
.	4f	.	.
2c	4e	.	.
.	4d	.	.
1A	2e	1a	1cc
.	2f	.	.
=21	=21	=21	=21
1G	1d	1b	1dd
2r	1c	2g	1ee
[2A	.	[2cc	.
=22	=22	=22	=22
2A]	2r	4cc]	2cc
.	.	4b	.
2D	1d	4a	2.ff
.	.	4g	.
1d	.	2a	.
.	.	.	4ee
.	2G	[2b	4dd
.	.	.	4cc
=23	=23	=23	=23
1G	1g	4b]	2dd
.	.	4a	.
.	.	2.g	2.ee
1A	1c	.	.
.	.	8f	4dd
.	.	8e	.
.	.	2f#	[2cc
=24	=24	=24	=24
1G	1d	0g	4cc]
.	.	.	8b
.	.	.	8a
.	.	.	2b
2r	1c	.	[1cc
2E	.	.	.
=25	=25	=25	=25
1F	2r	1r	1cc]
.	2A	.	.
1G	1B	1d	1r
=26	=26	=26	=26
2C	1c	1e	1g
2E	.	.	.
1D	2F	1f	1a
.	2A	.	.
=27	=27	=27	=27
2r	1G	2d	1b
2E	.	2.g	.
2G	2r	.	2g
.	.	4f	.
[2A	2A	4e	[2cc
.	.	4d	.
=28	=28	=28	=28
4A]	2c	2e	4cc]
4G	.	.	4b
4F	2.d	2.f	4a
4E	.	.	4g
2D	.	.	2a
.	4c	4e	.
2D	4B	[2d	[2b
.	4A	.	.
=29	=29	=29	=29
1E	2G	4d]	4b]
.	.	8c	4a
.	.	8B	.
.	2G	2c#	2.g
1D	1A	1d	.
.	.	.	8f
.	.	.	8e
.	.	.	2f#
=30	=30	=30	=30
[0G	[0G	[0d	[0g
=31	=31	=31	=31
0G]	0G]	0d]	0g]
==	==	==	==
*-	*-	*-	*-
!!!CDT: 1525/^1526/-1594/2/2
!!!OCY: Italia
!!!AGN: Mass (Canonic)
!!!AST: renaissance, vocal
!!!ASW: Motet (Maffoni)
!!!PWK: Masses, Book 2
!!!RNB: Cadence finals: C
!!!YOR: Le Opere Complete, v. 4, p. 74
!!!YOO: Rome, Italy: Fratelli Scalera
!!!END: 1992//
!!!EED: John Miller
!!!YEC: Copyright 2000, John Miller
!!!YEN: United States of America
!!!YEM: Rights to all derivative electronic formats reserved.
!!!YEM: Refer to licensing agreement for further details.
!!!YEM: This file must be accompanied by the licensing agreement.
!!!YEM: A copy of the licensing agreement may be found at http://www.music-cog.ohio-state.edu/HumdrumDatabases/Palestrina/license.txt
!!!EMD: converted to Humdrum by Bret Aarden
